X:1
T: Celebrated Stop Hornpipe
C:
R:Reel
Q: 232
K:A
M:4/4
L:1/8
|:ED|Cc BA Gf ed|fe c4 ef|ed dc cB BA|Ac E4 ED|
Cc BA Gf ed|fe c4 ef|ed BG E2 FG|A2 c2 A2:|
|:af|ec AE CE ac|dB GE DE B,D|CE AG FA dc|B^A Bc B2 af|
ec AE CE ac|dB GE DE B,D|CE AE Fd BG|A2 c2 A2:|
